X:1
T:Für Elise (theme)
C:Ludwig van Beethoven (1810)
M:3/8
L:1/16
Q:1/8=120
K:Am
e ^d | e ^d e B d c | A3 z C E | A3 z B,2 | E3 z ^G B |
c3 z B e | e ^d e ^d e B | d c A3 z | C E A3 z |
B2 E3 c | B3 z A2 |]
